svgs/sharp-regular/battery-slash.svg

<svg xmlns="http://www.w3.org/2000/svg" viewBox="0 0 640 512"><!--! Font Awesome Pro 6.6.0 by @fontawesome - https://fontawesome.com License - https://fontawesome.com/license (Commercial License) Copyright 2024 Fonticons, Inc. --><path d="M48.4 14.8L29.4 .1 0 38 19 52.7 591.5 497.2l19 14.7L639.9 474l-19-14.7L565.2 416l10.8 0 0-48 0-48 32 0 0-128-32 0 0-48 0-48-48 0L153 96 48.4 14.8zM214.8 144L528 144l0 224-24.7 0L214.8 144zM406.2 416l-60.9-48L80 368l0-209L32 121.2 32 144l0 224 0 48 48 0 326.2 0z"/></svg>

<svg xmlns="http://www.w3.org/2000/svg" viewBox="0 0 640 512"><!--! Font Awesome Pro 6.4.2 by @fontawesome - https://fontawesome.com License - https://fontawesome.com/license (Commercial License) Copyright 2023 Fonticons, Inc. --><path d="M48.4 14.8L29.4 .1 0 38 19 52.7 591.5 497.2l19 14.7L639.9 474l-19-14.7L565.2 416H576V368 320h32V192H576V144 96H528 153L48.4 14.8zM214.8 144H528V368H503.3L214.8 144zM345.2 368H80V159L32 121.2V144 368v48H80 406.2l-60.9-48z"/></svg>
